icons/repo-16.svg

<svg width="16" height="16" viewBox="0 0 16 16" xmlns="http://www.w3.org/2000/svg">
  <path fill-rule="evenodd" clip-rule="evenodd" d="M2 2.5C2 1.83696 2.26339 1.20107 2.73223 0.732233C3.20108 0.263392 3.83696 0 4.5 0L13.25 0C13.4489 0 13.6397 0.0790176 13.7803 0.21967C13.921 0.360322 14 0.551088 14 0.75V13.25C14 13.4489 13.921 13.6397 13.7803 13.7803C13.6397 13.921 13.4489 14 13.25 14H10.75C10.5511 14 10.3603 13.921 10.2197 13.7803C10.079 13.6397 10 13.4489 10 13.25C10 13.0511 10.079 12.8603 10.2197 12.7197C10.3603 12.579 10.5511 12.5 10.75 12.5H12.5V10.5H4.5C4.30308 10.5 4.11056 10.5582 3.94657 10.6672C3.78257 10.7762 3.65442 10.9312 3.57816 11.1128C3.50191 11.2943 3.48096 11.4943 3.51793 11.6878C3.5549 11.8812 3.64816 12.0594 3.786 12.2C3.92524 12.3422 4.0023 12.5338 4.00024 12.7328C3.99818 12.9318 3.91716 13.1218 3.775 13.261C3.63285 13.4002 3.4412 13.4773 3.24222 13.4752C3.04325 13.4732 2.85324 13.3922 2.714 13.25C2.25571 12.7829 1.99929 12.1544 2 11.5V2.5ZM12.5 1.5V9H4.5C4.144 9 3.806 9.074 3.5 9.208V2.5C3.5 2.23478 3.60536 1.98043 3.79289 1.79289C3.98043 1.60536 4.23478 1.5 4.5 1.5H12.5ZM5 12.25V15.5C5 15.5464 5.01293 15.5919 5.03734 15.6314C5.06175 15.6709 5.09667 15.7028 5.1382 15.7236C5.17972 15.7444 5.22621 15.7532 5.27245 15.749C5.31869 15.7448 5.36286 15.7279 5.4 15.7L6.85 14.613C6.89328 14.5805 6.94591 14.563 7 14.563C7.05409 14.563 7.10673 14.5805 7.15 14.613L8.6 15.7C8.63714 15.7279 8.68131 15.7448 8.72755 15.749C8.77379 15.7532 8.82028 15.7444 8.8618 15.7236C8.90333 15.7028 8.93826 15.6709 8.96266 15.6314C8.98707 15.5919 9 15.5464 9 15.5V12.25C9 12.1837 8.97366 12.1201 8.92678 12.0732C8.87989 12.0263 8.81631 12 8.75 12H5.25C5.1837 12 5.12011 12.0263 5.07322 12.0732C5.02634 12.1201 5 12.1837 5 12.25Z"/>
</svg>

<svg xmlns="http://www.w3.org/2000/svg" width="16" height="16" viewBox="0 0 16 16"><path fill-rule="evenodd" d="M2 2.5A2.5 2.5 0 014.5 0h8.75a.75.75 0 01.75.75v12.5a.75.75 0 01-.75.75h-2.5a.75.75 0 110-1.5h1.75v-2h-8a1 1 0 00-.714 1.7.75.75 0 01-1.072 1.05A2.495 2.495 0 012 11.5v-9zm10.5-1V9h-8c-.356 0-.694.074-1 .208V2.5a1 1 0 011-1h8zM5 12.25v3.25a.25.25 0 00.4.2l1.45-1.087a.25.25 0 01.3 0L8.6 15.7a.25.25 0 00.4-.2v-3.25a.25.25 0 00-.25-.25h-3.5a.25.25 0 00-.25.25z"/></svg>
